X: 17641
T: Hole In The Hedge, The
R: jig
M: 6/8
K: Dmajor
|:D2 F FEF|AFE F2 E|D3 F3|AFD E2 F|
D2 F FEF|AFA d2 A|def edB|1 AFD E3:|2 AFD EFA||
|:d2 f edB|AFA ABc|d2 f edB|AFD E2 F|
d2 f edB|AFA ABc|dcd BdB|1 AFD EFA:|2 AFD E3||

